X:495
T: Malamute's Fancy Hornpipe (with piano acc.)
C: BB
M: C|
L: 1/8
Q: 1/8=330
R: hornpipe
V: 1 program 1 21 %acc
V: 2 volume=70 clef=bass m=D program 1 01
K: G
[V:1] D|"G"GBBA "Em"BGEF|"G"G2Bd "Em"eBdB|"Am"cBAc "G"BGFG|"Am7"EGAB "D7"cAFD|
[V:2] z|G,,2[G2B2D2]E,2[E2B2G2]|G,,2[G2B2D2]E,2[E2B2G2]|A,,2[A2C2E2]G,,2[G2B2D2]|\
A,,2[G2C2E2]D,2[A2C2F2]|
%
[V:1] "G"GBBA "Em"BGEF|"G"G2Bd "Em"efge|"G" dB (3BAB "C"cGEG|"D"FADF "G"G3 :|
[V:2] G,,2[G2B2D2]E,2[E2B2G2]|G,,2[G2B2D2]E,2[E2B2G2]|G,,2[G2B2D2]C,2[E2G2C2]|\
D,2[A2D2F2][G,,3B,3D,3]:|
%
[V:1] A|"G"(3Bcd ef "C"gfge|"G"dBGB "Am7"AGEF|"G"GBdg "D"afdf|"C"gfge "D"d2 dc|
[V:2] z|G,,2[G2B2D2]C,2[E2G2C2]|G,,2[G2B2D2]A,,2[G2C2E2]|G,,2[G2B2D2]D,2[A2D2F2]|\
C,2[E2G2C2]D,2[A2D2F2]|
%
[V:1] "G"(3Bcd ef "C"gfge|"G"dBGB "Am"ABce|"G"dgfg "Em"efge|"D7"dBcA "G"G3 :|
[V:2] G,,2[G2B2D2]C,2[E2G2C2]|G,,2[G2B2D2]A,,2[A2C2E2]|G,,2[G2B2D2]E,2[E2B2G2]|\
D,2[A2C2F2][G,,3B,3D,3] :|
%%%%%%%%%%%%%%%%%%%%%%%%%%%%%%%%%%%%%%%%%%%
